X: 30
T:Reel De Montreal
% Nottingham Music Database
S:via PR
M:4/4
L:1/4
K:D
d|"G"gf/2e/2 d/2c/2B/2A/2|G/2B/2D/2G/2 BA/2G/2|"D"F/2A/2D/2F/2 A/2c/2B/2A/2|\
"G"G/2B/2D/2G/2 BB/2d/2|
"G"gf/2e/2 d/2c/2B/2A/2|"G"G/2B/2D/2G/2 BA/2G/2|"D7"F/2G/2A/2B/2 c/2d/2e/2f/2|\
"G"gg g:|
K:D
z|:"D"AF/2A/2 dA/2d/2|fd/2f/2 aa/2b/2|"A"ag "A7"eg|"D"ba fA|
"D"AF/2A/2 dA/2d/2|fd/2f/2 aa/2b/2|"G"ag "A7"ec|"D"d2 -d2:|


